X:3
S:Andy Irvine
K:Ddor
M:4/4
L:1/8
(ed) | c2 A2 c2 de | g6 de | e3 A GA (A2 | A6) ed | c2 A2 c2 de | g6 de | e3 A GA (A2 | A6) de |
g2 g2 ag ed | e6 ed | c3 A cd (d2 | d6) AB | c2 d2 eg ^fd | e6 AB | cd e2 G2 A2 | A6 :|
